X:2519
T:Cantar de Boda de Vil.latixil
C:Trad. (Igües X.N. Expósito)
M:2/4
L:1/8
Q:1/4=120
W:Ya se secaron las rosas
W:ya florecieron los claveles
W:ya se despide la niña
W:de todas las compañeras.
W:
W:La moza que hoy se casó
W:siempre fue muy divertida
W:por Dios-y pido Galán
W:que no haga mala vida.
W:
W:Adios casa de mis padres
W:ventanas y corredores.
W:Adios hermanos queridos
W:que me voy con mis amores.
W:
W:La madrina es una rosa
W:el padrino es un clavel
W:la novia es un espejo
W:el novio se mira en él.
K:Dm
DA|:AA AG|A2 F2|
AG FE|DC D2|
C2 FF|FE FG|
A2 F2|GG GG|
EC E2|[1 D2 DA:|[2 D2 z2||


